svgs/sharp-solid/hand-dots.svg

<svg xmlns="http://www.w3.org/2000/svg" viewBox="0 0 512 512"><!--! Font Awesome Pro 6.4.0 by @fontawesome - https://fontawesome.com License - https://fontawesome.com/license (Commercial License) Copyright 2023 Fonticons, Inc. --><path d="M288 32V0H224V32 256H192V64 32H128V64 336c0 1.5 0 3.1 .1 4.6L84.5 299.1l-29-27.6L.3 329.4l29 27.6 95.5 91c43.1 41.1 100.4 64 160 64H304c97.2 0 176-78.8 176-176V128 96H416v32V256H384V64 32H320V64 256H288V32zM240 336a16 16 0 1 1 32 0 16 16 0 1 1 -32 0zm80 16a16 16 0 1 1 0 32 16 16 0 1 1 0-32zm48-16a16 16 0 1 1 32 0 16 16 0 1 1 -32 0zm-16 80a16 16 0 1 1 0 32 16 16 0 1 1 0-32zM240 432a16 16 0 1 1 32 0 16 16 0 1 1 -32 0zm-48-48a16 16 0 1 1 0 32 16 16 0 1 1 0-32z"/></svg>

<svg xmlns="http://www.w3.org/2000/svg" viewBox="0 0 512 512"><!--! Font Awesome Pro 6.6.0 by @fontawesome - https://fontawesome.com License - https://fontawesome.com/license (Commercial License) Copyright 2024 Fonticons, Inc. --><path d="M288 32l0-32L224 0l0 32 0 224-32 0 0-192 0-32-64 0 0 32 0 272c0 1.5 0 3.1 .1 4.6L84.5 299.1l-29-27.6L.3 329.4l29 27.6 95.5 91c43.1 41.1 100.4 64 160 64l19.2 0c97.2 0 176-78.8 176-176l0-208 0-32-64 0 0 32 0 128-32 0 0-192 0-32-64 0 0 32 0 192-32 0 0-224zM240 336a16 16 0 1 1 32 0 16 16 0 1 1 -32 0zm80 16a16 16 0 1 1 0 32 16 16 0 1 1 0-32zm48-16a16 16 0 1 1 32 0 16 16 0 1 1 -32 0zm-16 80a16 16 0 1 1 0 32 16 16 0 1 1 0-32zM240 432a16 16 0 1 1 32 0 16 16 0 1 1 -32 0zm-48-48a16 16 0 1 1 0 32 16 16 0 1 1 0-32z"/></svg>
